icons/light/png.svg

<svg width="16" height="16" viewBox="0 0 16 16" fill="none" xmlns="http://www.w3.org/2000/svg">
<path d="M12.6667 2H3.33333C2.6 2 2 2.6 2 3.33333V12.6667C2 13.4 2.6 14 3.33333 14H12.6667C13.4 14 14 13.4 14 12.6667V3.33333C14 2.6 13.4 2 12.6667 2ZM6 7.66667C6 8.2 5.53333 8.66667 5 8.66667H4.33333V10H3.33333V6H5C5.53333 6 6 6.46667 6 7V7.66667ZM9.33333 10H8.33333L7.66667 8.33333V10H6.66667V6H7.66667L8.33333 7.66667V6H9.33333V10ZM12.6667 7H11V9H11.6667V8H12.6667V9.13333C12.6667 9.6 12.3333 10 11.8 10H10.9333C10.4 10 10.0667 9.53333 10.0667 9.13333V6.93333C10 6.46667 10.3333 6 10.8667 6H11.7333C12.2667 6 12.6 6.46667 12.6 6.86667V7H12.6667ZM4.33333 7H5V7.66667H4.33333V7Z" fill="#424242"/>
</svg>

<svg xmlns="http://www.w3.org/2000/svg" width="16" height="16" fill="none" xmlns:v="https://vecta.io/nano"><path d="M12.667 2H3.333A1.34 1.34 0 0 0 2 3.333v9.333A1.34 1.34 0 0 0 3.333 14h9.333A1.34 1.34 0 0 0 14 12.667V3.333A1.34 1.34 0 0 0 12.667 2zM6 7.667c0 .533-.467 1-1 1h-.667V10h-1V6H5c.533 0 1 .467 1 1v.667zM9.333 10h-1l-.667-1.667V10h-1V6h1l.667 1.667V6h1v4zm3.333-3H11v2h.667V8h1v1.133c0 .467-.333.867-.867.867h-.867c-.533 0-.867-.467-.867-.867v-2.2c-.067-.467.267-.933.8-.933h.867c.533 0 .867.467.867.867V7h.067zM4.333 7H5v.667h-.667V7z" fill="#424242"/></svg>
